X: 326
T: A Punch In The Dark
R: reel
M: 4/4
K: Bdorian
|:a3g aece|acea gabg|a3g aece|fAed cAAc|
eaag aece|acea gabg|afge faec|1 dcBc defg:|2 d2cA Bcdc||
|:B3d cBdc|BdcA F3A|BABd cBAB|caag afec|
BABd cBdc|BdcA FAGB|AE~E2 ABce|1 faec dcBA:|2 faec defg||

